!!!CDT:
!!!PTL: Il primo libro de madrigali a cinque voci
!!!PPP: Venice
!!!PPR: Angelo Gardano
!!!PDT: 1606
!!!PUB-format:
!!!RISM: N 687
!!!rime: 241
!!!AGN: Madrigal
!!!SCT: Trm0241a
!!!SCA: Trm0241a
!!!original-voices: 5
!!!extant-voices: 5
!!!complete: Y
!!!final: G
!!!COM: Nielsen, Hans
!!!OTL: Mentre i dipinti augelli
**kern	**text	**kern	**text	**kern	**text	**kern	**text	**kern	**text
*part5	*part5	*part4	*part4	*part3	*part3	*part2	*part2	*part1	*part1
*staff5	*staff5	*staff4	*staff4	*staff3	*staff3	*staff2	*staff2	*staff1	*staff1
*I"Basso	*	*I"Tenore	*	*I"Alto	*	*I"Quinto	*	*I"Canto	*
*I'B	*	*I'T	*	*I'A	*	*I'V	*	*I'C	*
*oclefF4	*	*oclefC4	*	*oclefC3	*	*oclefC1	*	*oclefC1	*
*clefF4	*	*clefGv2	*	*clefGv2	*	*clefG2	*	*clefG2	*
*k[]	*	*k[]	*	*k[]	*	*k[]	*	*k[]	*
*C:	*	*C:	*	*C:	*	*C:	*	*C:	*
*omet(C)	*	*omet(C)	*	*omet(C)	*	*omet(C)	*	*omet(C)	*
*M4/2	*	*M4/2	*	*M4/2	*	*M4/2	*	*M4/2	*
=1	=1	=1	=1	=1	=1	=1	=1	=1	=1
0r	.	0r	.	2g	Men-	0r	.	1r	.
.	.	.	.	4f#X	-tre i	.	.	.	.
.	.	.	.	4g	di-	.	.	.	.
.	.	.	.	8cL	-pin-	.	.	2cc	Men-
.	.	.	.	8d	.	.	.	.	.
.	.	.	.	8e	.	.	.	.	.
.	.	.	.	8fnXiJ	.	.	.	.	.
.	.	.	.	4g	.	.	.	4b	-tre i
.	.	.	.	4e	-ti au-	.	.	4cc	di-
=2	=2	=2	=2	=2	=2	=2	=2	=2	=2
0r	.	2G	Men-	2d	-gel-	1r	.	8gL	-pin-
.	.	.	.	.	.	.	.	8a	.
.	.	.	.	.	.	.	.	8b	.
.	.	.	.	.	.	.	.	8ccJ	.
.	.	4F#X	-tre i	2d	-li,	.	.	4dd	.
.	.	4G	di-	.	.	.	.	4b	-ti au-
.	.	8CL	-pin-	2r	.	2cc	Men-	2g	-gel-
.	.	8D	.	.	.	.	.	.	.
.	.	8E	.	.	.	.	.	.	.
.	.	8FnXiJ	.	.	.	.	.	.	.
.	.	4G	.	4d	Ca-	4b	-tre i	2g	-li,
.	.	4c	-ti au-	8e	-ra	4cc	di-	.	.
.	.	.	.	8e	Li-	.	.	.	.
=3	=3	=3	=3	=3	=3	=3	=3	=3	=3
2G	Men-	2d	-gel-	4B	-co-	8gL	-pin-	2r	.
.	.	.	.	.	.	8a	.	.	.
.	.	.	.	4B	-ri	8b	.	.	.
.	.	.	.	.	.	8ccJ	.	.	.
4F#X	-tre i	2d	-li,	4A	mi-	4dd	.	4a	Ca-
4G	di-	.	.	4G	-a,	4g	-ti au-	8b	-ra
.	.	.	.	.	.	.	.	8b	Li-
8CL	-pin-	2r	.	4r	.	2g	-gel-	4ee	-co-
8D	.	.	.	.	.	.	.	.	.
8E	.	.	.	4c	Men-	.	.	4ee	-ri
8FnXiJ	.	.	.	.	.	.	.	.	.
4G	.	4d	Ca-	4B	-tre i	2g	-li,	4dd	mi-
4c	-ti au-	8e	-ra	4c	di-	.	.	4cc	-a,
.	.	8e	Li-	.	.	.	.	.	.
=4	=4	=4	=4	=4	=4	=4	=4	=4	=4
2G	-gel-	4B	-co-	4d	-pin-	2r	.	1r	.
.	.	4c	-ri	4e	-ti au-	.	.	.	.
2G	-li,	2B	mi-	2g	-geli-	4d	Ca-	.	.
.	.	.	.	.	.	8e	-ra	.	.
.	.	.	.	.	.	8e	Li-	.	.
2r	.	2c	-a,	2e	-li,	4g	-co-	4r	.
.	.	.	.	.	.	4g	-ri	4g	Men-
4D	Ca-	2r	.	4d	Ca-	4a	mi-	4f#X	-tre i
8E	-ra	.	.	8B	-ra	4g	-ia,	4g	di-
8E	Li-	.	.	8B	Li-	.	.	.	.
=5	=5	=5	=5	=5	=5	=5	=5	=5	=5
4F	-co-	2c	Men-	4A	-co-	4r	.	8cL	-pin-
.	.	.	.	.	.	.	.	8d	.
4C	-ri	.	.	4c	-ri	4g	Men-	8e	.
.	.	.	.	.	.	.	.	8fnXiJ	.
4G	mi-	4B	-tre i	4d	mi-	4g	-tre i	4g	.
4C	-a,	4c	di-	4c	-a,	4g	di-	4e	-ti au-
2r	.	8FL	-pin-	1r	.	8aL	-pin-	2f	-gel-
.	.	8G	.	.	.	8b	.	.	.
.	.	8A	.	.	.	8cc	.	.	.
.	.	8BJ	.	.	.	8ddJ	.	.	.
2C	Men-	4c	.	.	.	4ee	.	2e	-li,
.	.	4G	-ti au-	.	.	4cc	-ti au-	.	.
=6	=6	=6	=6	=6	=6	=6	=6	=6	=6
4BB	-tre i	4G	-gel-	2r	.	4dd	-gel-	4g	Ca-
4C	di-	4G	-li,	.	.	4cc	-li,	8e	-ra
.	.	.	.	.	.	.	.	8e	Li-
8GGL	-pin-	2r	.	2g	Men-	2b	<Men-	4d	-co-
8AA	.	.	.	.	.	.	.	.	.
8BB	.	.	.	.	.	.	.	4d	-ri
8CJ	.	.	.	.	.	.	.	.	.
4D	.	4A	Ca-	4f#X	-tre i	4a	-tre i	2d	mi-
4BB	-ti au-	8D	-ra	4g	di-	4b	di-	.	.
.	.	8D	Li-	.	.	.	.	.	.
2C	-gel-	4E	-co-	8cL	-pin-	8eL	-pin-	2c	-a,
.	.	.	.	8d	.	8f	.	.	.
.	.	4E	-ri	8e	.	8g	.	.	.
.	.	.	.	8fnXiJ	.	8aJ	.	.	.
=7	=7	=7	=7	=7	=7	=7	=7	=7	=7
2GG	-li,	4D	mi-	4g	.	4b	.	4d	<Ca-
.	.	4G	.	4g	-ti au-	4b	-ti au-	8e	-ra
.	.	.	.	.	.	.	.	8e	Li-
2r	.	2C	-a,	2e	-gel-	2cc	-gel-	4g	-co-
.	.	.	.	.	.	.	.	4g	-ri
4AA	Ca-	4r	.	4e	-li,	4cc	-li,>	4a	mi-
8BB	-ra	4D	<Ca-	4r	.	4r	.	4g	-a,>
8BB	Li-	.	.	.	.	.	.	.	.
4C	-co-	8E	-ra	4c	Ca-	4g	Ca-	4e	<Ca-
.	.	8E	Li-	.	.	.	.	.	.
4E	-ri	4G	-co-	8c	-ra	8cc	-ra	8e	-ra
.	.	.	.	8c	Li-	8cc	Li-	8e	Li-
=8	=8	=8	=8	=8	=8	=8	=8	=8	=8
1D	mi-	4A	-ri	4d	-co-	4a	-co-	4f#X	-co-
.	.	2G	mi-	4d	-ri	4b	-ri	4g	-ri
.	.	.	.	2d	mi-	2dd	mi-	2a	mi-
.	.	4F#X	.	.	.	.	.	.	.
1GG	-a,	1G	-a,>	2d	-a,	2b	-a,	2g	-a,>
.	.	.	.	4g	Tra	4dd	Tra	4b	Tra
.	.	.	.	8g	le	8dd	le	8b	le
.	.	.	.	8g	su-	8dd	su-	8b	su-
=9	=9	=9	=9	=9	=9	=9	=9	=9	=9
0r	.	0r	.	4c	-per-	4ee	-per-	4cc	-per-
.	.	.	.	4d	-be	4dd	-be	4b	-be
.	.	.	.	4f	pian-	4cc	pian-	4a	pian-
.	.	.	.	4g	-t'e	4b	-t'e	4g	-t'e
.	.	.	.	2.d	gl'ar-	8aL	gl'ar-	8fnXiL	gl'ar-
.	.	.	.	.	.	8g	.	8e	.
.	.	.	.	.	.	8f	.	8d	.
.	.	.	.	.	.	8gJ	.	8eJ	.
.	.	.	.	.	.	8aL	.	8fL	.
.	.	.	.	.	.	8b	.	8g	.
.	.	.	.	8cL	.	8cc	.	8a	.
.	.	.	.	8BJ	.	8ddJ	.	8bJ	.
=10	=10	=10	=10	=10	=10	=10	=10	=10	=10
1r	.	1r	.	8AL	.	2.ee	.	2.cc	.
.	.	.	.	8B	.	.	.	.	.
.	.	.	.	8c	.	.	.	.	.
.	.	.	.	8dJ	.	.	.	.	.
.	.	.	.	4e	.	.	.	.	.
.	.	.	.	4f#X	-bu-	4dd	-bu-	4a	-bu-
2r	.	2r	.	4g	-scel-	4dd	-scel-	4b	-scel-
.	.	.	.	4g	-li,	4dd	-li	4b	-li
4c	Tra	4e	Tra	4g	<Tra	4r	.	2r	.
8c	le	8e	le	8g	le	4cc	Fa-	.	.
8c	su-	8e	su-	8g	su-	.	.	.	.
=11	=11	=11	=11	=11	=11	=11	=11	=11	=11
4F	-per-	4f	-per-	4a	-per-	4cc	-cean	0r	.
4G	-be	4e	-be	4g	-be	4b	dol-	.	.
4B-X	pian-	4d	pian-	4fnXi	pian-	4dd	-c'ar-	.	.
4c	-t'e	4c	-t'e	4e	-t'e	4g	-mo-	.	.
2.G	gl'ar-	8BL	gl'ar-	8dL	gl'ar-	2dd	-ni-	.	.
.	.	8A	.	8c	.	.	.	.	.
.	.	8G	.	8B	.	.	.	.	.
.	.	8AJ	.	8cJ	.	.	.	.	.
.	.	8BL	.	8dL	.	2dd	-a,	.	.
.	.	8c	.	8e	.	.	.	.	.
8FL	.	8d	.	8f	.	.	.	.	.
8EJ	.	8eJ	.	8gJ	.	.	.	.	.
=12	=12	=12	=12	=12	=12	=12	=12	=12	=12
8DL	.	2.f	.	2.a	.	0r	.	4r	.
8E	.	.	.	.	.	.	.	.	.
8F	.	.	.	.	.	.	.	4dd	Fa-
8GJ	.	.	.	.	.	.	.	.	.
4A	.	.	.	.	.	.	.	4cc	-cean
4BnXi	-bu-	4d	-bu-	4g	-bu-	.	.	4dd	dol-
2c	-scel-	2e	-scel-	2g	-scel-	.	.	2cc	-c'ar-
4c	-li	2e	-li	4g	-li>	.	.	2cc	-mo-
4C	Fa-	.	.	4g	Fa-	.	.	.	.
=13	=13	=13	=13	=13	=13	=13	=13	=13	=13
2G	-cean	2r	.	2g	-cean	2dd	<Fa-	2b	-ni-
2E	dol-	4r	.	2g	dol-	2.cc	-cean	4cc	-a,
.	.	4G	Fa-	.	.	.	.	4c	<Fa-
2D	-c'ar-	4A	-cean	2f	-c'ar-	.	.	2d	-cean
.	.	4B	dol-	.	.	2b	dol-	.	.
2C	-mo-	[2c	-c'ar-	2e	-mo-	.	.	2e	dol-
.	.	.	.	.	.	[4a	-c'ar-	.	.
=14	=14	=14	=14	=14	=14	=14	=14	=14	=14
1D	-ni-	4c]	.	1d	-ni-	4a]	.	4f#X	-c'ar-
.	.	4B	-mo-	.	.	4g	-mo-	2g	-mo-
.	.	2A	-ni-	.	.	2a	-ni-	.	.
.	.	.	.	.	.	.	.	4f#X	-ni-
4GG	-a,	2G	-a,	4d	-a,	2b	-a,>	2g	-a,>
4GG	Et	.	.	4d	Et	.	.	.	.
4C	ho-	4r	.	4e	ho-	4r	.	4r	.
4C	-ra	4G	Et	4e	-ra	4cc	Et	4g	Et
=15	=15	=15	=15	=15	=15	=15	=15	=15	=15
4.AA	que-	4c	ho-	4.e	que-	4ee	ho-	4a	ho-
.	.	4c	-ra	.	.	4ee	-ra	4a	-ra
8AA	-sti hor	.	.	8e	-sti hor	.	.	.	.
2C	quel-	4.G	que-	2c	quel-	4.ee	que-	4.e	que-
.	.	8A	-sti hor	.	.	8ee	-sti hor	8e	-sti hor
2GG	-li,	2B	quel-	2d	-li,	2dd	quel-	2g	quel-
4r	.	2c	-li,	4r	.	2cc	-li,	2g	-li,
4C	<Et	.	.	4e	<Et	.	.	.	.
=16	=16	=16	=16	=16	=16	=16	=16	=16	=16
4F	ho-	4r	.	4f	ho-	4r	.	4r	.
4F	-ra	4c	<Et	4f	-ra	4cc	<Et	4a	<Et
4.D	que-	4F	ho-	4.f	que-	4dd	ho-	4a	ho-
.	.	4F	-ra	.	.	4dd	-ra	4a	-ra
8D	-sti hor	.	.	8f	-sti hor	.	.	.	.
2F	quel-	4.A	que-	2f	quel-	4.cc	que-	4.a	que-
.	.	8A	-sti hor	.	.	8cc	-sti hor	8a	-sti hor
2C	-li>	2c	quel-	2e	-li>	2cc	quel-	2g	quel-
=17	=17	=17	=17	=17	=17	=17	=17	=17	=17
1r	.	2G	-li>	4d	Al-	2b	-li>	2g	-li>
.	.	.	.	4e	-ter-	.	.	.	.
.	.	4G	Al-	4d	-na-	2r	.	2r	.
.	.	4A	-ter-	8c	-van	.	.	.	.
.	.	.	.	8c	a	.	.	.	.
2r	.	4G	-na-	4B	pro-	1r	.	4g	Al-
.	.	8F	-van	4A	-va i	.	.	4a	-ter-
.	.	8F	a	.	.	.	.	.	.
4G	Al-	4E	pro-	4B	va-	.	.	4g	-na-
4A	-ter-	4D	-va i	4d	-ghi ac-	.	.	8f	-van
.	.	.	.	.	.	.	.	8f	a
=18	=18	=18	=18	=18	=18	=18	=18	=18	=18
4G	-na-	4E	va-	8cL	-cen-	4g	Al-	4e	pro-
.	.	.	.	8B	.	.	.	.	.
8F	-van	4F	-ghi ac-	8A	.	4a	-ter-	4d	-va i
8F	a	.	.	8BJ	.	.	.	.	.
4E	pro-	4G	-cen-	8cL	.	4g	-na-	4e	va-
.	.	.	.	16B	.	.	.	.	.
.	.	.	.	16cJ	.	.	.	.	.
4D	-va i	8A	-ti,	4d	.	8f	-van	4f	-ghi ac-
.	.	8A	i	.	.	8f	a	.	.
4C	va-	8EL	va-	4G	-ti,	4e	pro-	8gL	-cen-
.	.	8F	.	.	.	.	.	8a	.
4BB	-ghi ac-	8G	.	4d	i	4d	-va i	8b	.
.	.	8AJ	.	.	.	.	.	8ccJ	.
8GGL	-cen-	8BL	.	4d	va-	2g	va-	4.dd	.
8AA	.	8cJ	.	.	.	.	.	.	.
8BB	.	[4d	.	4G	-ghi ac-	.	.	.	.
8CJ	.	.	.	.	.	.	.	16ccL	.
.	.	.	.	.	.	.	.	16bJ	.
=19	=19	=19	=19	=19	=19	=19	=19	=19	=19
1D	.	4d]	.	1d	-cen-	4f#X	-ghi ac-	4a	.
.	.	4B	-ghi ac-	.	.	4.g	-cen-	4g	.
.	.	2A	-cen-	.	.	.	.	2a	.
.	.	.	.	.	.	16f#iL	.	.	.
.	.	.	.	.	.	16eJ	.	.	.
.	.	.	.	.	.	4f#X	.	.	.
2GG	-ti,	4G	-ti,	2d	-ti,	2g	-ti,	2b	-ti,
.	.	4G	Dis-	.	.	.	.	.	.
4r	.	2d	-s'io	4r	.	4r	.	4r	.
4GG	Dis-	.	.	4g	Dis-	4b	Dis-	4dd	Dis-
=20	=20	=20	=20	=20	=20	=20	=20	=20	=20
2G	-s'io	4r	.	2g	-s'io	2b	-s'io	2dd	-s'io
.	.	2d	pien	.	.	.	.	.	.
4r	.	.	.	4r	.	4r	.	4r	.
2G	pien	8d	di	2d	pien	2g	pien	2b	pien
.	.	8d	stu-	.	.	.	.	.	.
.	.	4B	-po-	.	.	.	.	.	.
8D	di	2A	.	8f	di	8a	di	8dd	di
8D	stu-	.	.	8f	stu-	8a	stu-	8dd	stu-
2E	-po-	.	.	2e	-po-	2ee	-po-	2b	-po-
.	.	4G#X	.	.	.	.	.	.	.
=21	=21	=21	=21	=21	=21	=21	=21	=21	=21
2AA	-re:	2A	-re:	2e	-re:	2cc#X	-re:	2a	-re:
2r	.	4A	"Que-	2r	.	4ee	"Que-	4cc	"Que-
.	.	8A	-sta è	.	.	8ccnXi	-st'è	8a	-sta è
.	.	8GnXi	la	.	.	8dd	la	8b	la
1r	.	4c	sco-	4g	"Que-	4ee	sco-	4cc	sco-
.	.	4c	-la o-	8e	-sta è	4ee	-la o-	4cc	-la o-
.	.	.	.	8f	la	.	.	.	.
.	.	8c	-v'è	8g	sco-	8ee	-v'è	8cc	-v'è
.	.	8G	ma-	8g	-la o-	8dd	ma-	8b	ma-
.	.	8A	-e-	8e	-v'è	8cc	-e-	8a	-es-
.	.	8F	-stro a-	8f	ma-	8cc	-stro a-	8a	-stro a-
=22	=22	=22	=22	=22	=22	=22	=22	=22	=22
4G	"Que-	4G	-mo-	4d	-e-	4b	-mo-	4g	-mo-
8E	-st'è	4G	-re,	4e	-stro a-	4b	-re,	4g	-re,
8F	la	.	.	.	.	.	.	.	.
4G	sco-	2r	.	4d	-mo-	4b	<Que-	4dd	<Que-
4G	-la o-	.	.	4d	-re,	8g	-st'è	8b	-sta è
.	.	.	.	.	.	8a	la	8cc	la
8G	-v'è	4B	<Que-	4g	Que-	4b	sco-	4dd	sco-
8G	ma-	.	.	.	.	.	.	.	.
8C	-e-	8G	-sta è	8e	-sta è	4cc	-la o-	4ee	-la o-
8C	-stro a-	8A	la	8f	la	.	.	.	.
4G	-mo-	4B	sco-	4g	sco-	8b	-v'è	8dd	-v'è
.	.	.	.	.	.	8b	ma-	8dd	ma-
4C	-re, o-	4c	-la o-	4e	-la o-	8g	-e-	8cc	-e-
.	.	.	.	.	.	8g	-stro a-	8cc	-stro a-
=23	=23	=23	=23	=23	=23	=23	=23	=23	=23
8E	-v'è	4G	-v'è	4e	-v'è	4g	-mo-	4b	-mo-
8D	ma-	.	.	.	.	.	.	.	.
4C	-e-	4G	ma-	4e	ma-	4g	-re,> o-	4cc	-re,> o-
2GG	-stro a-	4G	-e-	2d	-e-	8b-X	-v'è	8dd	-v'è
.	.	.	.	.	.	8a	ma-	8cc	ma-
.	.	4D	-stro a-	.	.	2g	-e-	4b-X	-e-
1AA	-mo-	1A	-mo-	4c#X	-stro a-	.	.	2a	-stro a-
.	.	.	.	2d	-mo-	4f	-stro a-	.	.
.	.	.	.	.	.	2e	-mo-	2a	-mo-
.	.	.	.	4c#X	.	.	.	.	.
=24	=24	=24	=24	=24	=24	=24	=24	=24	=24
2D	-re!	2A	-re!	2d	-re!	2d	-re!	2f#X	-re!
2.D	Deh!	2r	.	2.f	Deh!	2.dd	Deh!	2.a	Deh!
.	.	2.A	Deh!	.	.	.	.	.	.
8AA	per-	.	.	8e	per-	8cc	per-	8a	per-
8AA	-ché	.	.	8e	-ché	8cc	-ché	8a	-ché
4FF	non	.	.	4f	non	4cc	non	4a	non
4GG	ap-	8D	per-	4d	ap-	4bnXi	ap-	4g	ap-
.	.	8D	-ché	.	.	.	.	.	.
=25	=25	=25	=25	=25	=25	=25	=25	=25	=25
4AA	-pren-	4C	non	2f	-pren-	2a	-pren-	2cc	-pren-
4BB	-do i	4D	ap-	.	.	.	.	.	.
1C	bei	4E	-pren-	2e	-do i	2a	-do i	2cc	-do i
.	.	4F	-do i	.	.	.	.	.	.
.	.	2G	bei	2e	bei	2g	bei	2cc	bei
2BB	la-	[2G	la-	2d	la-	2g	la-	2dd	la-
=26	=26	=26	=26	=26	=26	=26	=26	=26	=26
1AA	-men-	2G]	.	1A	-men-	1a	-men-	1cc	-men-
.	.	2F#X	-men-	.	.	.	.	.	.
2GG	-ti	1G	-ti	2B	-ti	2d	-ti	2b	-ti
[2G	Ne	.	.	[2B	Ne'	[2g	Ne'	[2dd	Ne'
=27	=27	=27	=27	=27	=27	=27	=27	=27	=27
2G]	.	0r	.	2B]	.	4g]	.	2dd]	.
.	.	.	.	.	.	4d	miei	.	.
2A	miei	.	.	2c	miei	2f	dol-	2cc	miei
2c	dol-	.	.	2e	dol-	4e	-ci	2cc	dol-
.	.	.	.	.	.	4a	tor-	.	.
4F	-ci	.	.	4f	-ci	[2cc	-men-	4a	-ci
4C	tor-	.	.	4e	tor-	.	.	4g	tor-
=28	=28	=28	=28	=28	=28	=28	=28	=28	=28
1G	-men-	2r	.	1d	-men-	2cc]	.	1g	-men-
.	.	1G	Ne'	.	.	2b	.	.	.
2C	-ti,	.	.	2c	-ti,	2cc	-ti,	2e	-ti,
[2C	<Né	2E	miei	[2g	Ne'	[2ee	Ne'	[2cc	Ne'
=29	=29	=29	=29	=29	=29	=29	=29	=29	=29
2C]	.	2E	dol-	2g]	.	2ee]	.	4cc]	.
.	.	.	.	.	.	.	.	4g	miei
2D	miei	2F	-ci	2f	miei	2dd	miei	2b-X	dol-
2F	dol-	4r	.	2f	dol-	2cc	dol-	4a	-ci,
.	.	4A	tor-	.	.	.	.	4.cc	dol-
4C	-ci	[2G	-men-	2g	-ci	4ee	-ci	.	.
.	.	.	.	.	.	.	.	8cc	-ci
4GG	tor-	.	.	.	.	4dd	tor-	4bnXi	tor-
=30	=30	=30	=30	=30	=30	=30	=30	=30	=30
1D	-men-	2G]	.	4r	.	1dd	-men-	1a	-men-
.	.	.	.	4d	tor-	.	.	.	.
.	.	2F#X	.	2d	-men-	.	.	.	.
1GGl	-ti?">	1Gl	-ti?"	1dl	-ti?"	1bl	-ti?"	1gl	-ti?"
==	==	==	==	==	==	==	==	==	==
*-	*-	*-	*-	*-	*-	*-	*-	*-	*-
!!!system-decoration: [*]
!!!RDF**kern: i = editorial accidental
!!!RDF**kern: l = terminal long
!!!ENC: Emiliano Ricciardi
!!!END: 2019
!!!EED: Ricciardi, Emiliano
!!!EEV: 2019/02/22
!!!YEC: Copyright 2018 Emiliano Ricciardi, All Rights Reserved
!!!ONB: Translated from MusicXML on 2019/02/22 and edited by Craig Stuart Sapp
!!@@BEGIN:	VERSEDATA
!!@SOLERTI:	241
!!@CATALOGNUM:	Trm0241
!!@LAST_MODIFIED: 2020/07/12
!!@ATTRIBUTION:	not secure
!!@TITLE:		Mentre i dipinti augelli
!!@GENRE:		madrigale
!!@MANUSRC:	none
!!@PRINTSRC:	28, 93, 141, 166, 169
!!@@BEGIN:	VERSES
!!@ABOUTIT:	[TIRSI E LICORI]
!!@ABOUTEN:	[THYRSIS AND LYCORIS]
!!@EDITOR:	Solerti, Angelo
!!@EDITION_TITLE: Le Rime di Torquato Tasso
!!@EDITION_LOC:	Bologna
!!@EDITION_PUB:	Romagnoli-Dall’Acqua
!!@EDITION_DATE:  1898-1902
!!@EDITION_VOL:	2
!!@EDITION_PAGE:  333
!!@TRANSLATOR:	Emiliano Ricciardi and Amyrose McCue Gill
!!@VERSE:
!!	Mentre i dipinti augelli,
!!	Cara Licori mia,
!!	Fra le superbe piante e gli arboscelli
!!	Facean bella armonia,
!!	Et hora questi or quelli
!!	Alternavano a prova i vaghi accenti,
!!	Diss'io pien di stupore: &mdash;
!!	Questa è la scuola ov'è maestro Amore!
!!	Deh! perché non apprendo i bei lamenti
!!	Ne' miei dolci tormenti? &mdash;
!!@TVERSE:
!!	While the colorful birds,
!!	Dear Lycoris mine,
!!	Among the mighty trees and the little saplings
!!	Made beautiful harmony,
!!	And now these or those
!!	Competed in turn [with] their lovely phrases.
!!	I said, full of wonder: &mdash;
!!	This is the school where Love is master!
!!	Oh! Why do I not learn the beautiful laments
!!	In my sweet torments? &mdash;
!!@@END:		VERSES
!!@OTHER_CRIT_ED:   None
!!@ATTRIBUTION_ABOUT:	Not secure
!!<br>
!!This poem is attributed to Tasso only in a print that was not supervised by Tasso and in later anthologies and reprints (see Literary Sources)
!!@DATING:	In or before 1587
!!<br>
!!The earliest written appearance of this poem is in a literary print published in 1587 (see Literary Sources)
!!@DEDICATEE:
!!@COMMENTARY:
!!@@END:		VERSEDATA
!!@@BEGIN:	SETTING
!!@CATALOGNUM:	Trm0241a
!!@RIMETITLE:	Mentre i dipinti augelli
!!@SOLERTI:	241
!!@COMPOSER:	Nielsen, Hans
!!@PRINCEPSTITLE:	Il primo libro de madrigali a cinque voci
!!@PRINCEPSLOC:	Venetia
!!@NORMLOC:	Venice
!!@NORMPUB:	Angelo Gardano
!!@NORMPUBSHORT:	Gardano
!!@PRINCEPSPUB:	Gardano
!!@PRINCEPSYEAR:	1606
!!@PRINCEPSRISM:	N 687
!!@REPRINTS:	
!!@OVOICES:	5
!!@EXTANTVOICES:	5
!!@PARTBOOKS:	
!!@EXTPARTBOOKS:	
!!@OCLEFS:	C1,C1,C3,C4,F4
!!@OMENSURATION:	C
!!@OKEYSIG:	-
!!@FINAL:	G
!!@TIMPEDITOR:	Ricciardi, Emiliano
!!@NOTE:		
!!@@END:		SETTING
